static/images/logo--gray.svg

<?xml version="1.0" encoding="UTF-8" standalone="no"?>
<svg width="65px" height="60px" viewBox="0 0 65 60" version="1.1" xmlns="http://www.w3.org/2000/svg" xmlns:xlink="http://www.w3.org/1999/xlink">
    <defs></defs>
    <g stroke="none" stroke-width="1" fill="none" fill-rule="evenodd">
        <g transform="translate(-18.000000, -29.000000)" fill="#64728A">
            <g>
                <g transform="translate(18.000000, 29.000000)">
                    <g>
                        <path d="M31.0517413,13.0601263 C31.7009979,13.3361839 31.5125455,14.5748338 31.5125455,14.5748338 C31.5125455,14.5748338 29.8680911,14.7853802 29.3412121,14.6934792 C28.0080483,14.4609416 27.3527388,13.9658522 25.8407679,14.1934107 C24.328797,14.4209692 20.4677915,17.3126851 17.1449494,17.3126851 C13.8221074,17.3126851 7.73728902,15.4789385 7.73728902,15.4789385 L7.65233616,15.6765362 C7.469041,15.6724656 6.90361132,15.4851562 6.27230334,15.2779898 C5.76979565,15.1130898 5.22554864,14.9356087 4.79905596,14.8279431 C3.9467,14.6127707 3.66942341,14.3340895 3.59215846,14.574834 C3.5008476,14.8593433 3.8961347,15.15842 3.94742613,15.2560189 C3.99871756,15.3536178 3.84371905,15.5391283 3.1383411,15.3885723 C1.55288879,15.0501728 0.143720649,13.2239191 0.0134731436,13.4309036 C-0.13982389,13.6745176 1.03703211,15.526793 2.42259339,16.5308762 C3.34886109,17.2021204 5.00395858,17.3757272 5.95968217,17.5892836 C6.43358158,17.6951765 6.75027705,17.7470224 6.75027705,17.7470224 L5.58583882,21.9075962 C5.58583882,21.9075962 11.9844853,23.607704 16.1141151,23.7666739 C20.2437448,23.9256438 23.6465455,22.67895 24.406539,22.6320983 C25.1665325,22.5852466 25.9654892,23.0041705 26.8979167,24.1241839 C27.8014138,25.2094466 28.0793002,27.0223284 28.0793006,28.3185594 C28.0793016,30.9525275 26.6390257,33.6496843 25.8407679,34.2640028 C25.0425101,34.8783212 14.8001225,38.4524588 13.5224914,39.7367782 C12.2448604,41.0210975 7.18071345,52.6809328 7.17858963,55.4671306 C7.17838755,55.7322378 9.39637976,55.8647914 9.39637976,55.8647914 C9.39637976,55.8647914 9.25058645,56.7933382 8.91644146,57.0927003 C8.58229647,57.3920624 5.68848603,57.6373267 4.66561868,58.2212101 C4.07662668,58.5574244 3.85587328,59.5342262 3.94742613,59.7204396 C4.03897898,59.9066529 12.4664543,59.9019524 12.6409871,59.7204396 C12.8155198,59.5389267 12.6409871,55.9973447 12.6409871,55.9973447 C12.6409871,55.9973447 14.4294358,55.8394441 14.4294358,55.4671306 C14.4294358,51.524182 17.1451734,46.3874352 21.006244,44.2130189 C24.8673146,42.0386026 30.4735884,40.5989834 35.1421464,41.106848 C39.8107044,41.6147126 45.1084797,44.3157512 46.9956066,46.8263572 C48.6200042,48.9874321 47.7051274,55.1920745 47.7051274,56.5624859 C47.7051274,56.8260316 48.9940425,56.8275931 48.9940425,56.8275931 C48.9940425,56.8275931 48.5048529,59.4992762 48.6071249,59.6877546 C48.7093969,59.8762329 57.2898164,60.0523726 57.8996987,59.9855478 C58.5095809,59.9187231 57.8907998,58.7510923 57.1526281,58.3537637 C56.3923864,57.9445557 53.9390454,57.5500314 52.9954385,57.2925743 C52.7335741,57.2211263 52.771525,56.8699457 52.7715248,56.827594 C52.7715248,56.827594 55.1842459,56.8523475 55.2241034,56.5624859 C55.5224832,54.3925345 54.3422288,44.9959325 53.3715046,42.7005211 C52.5657032,40.7950926 42.9085314,35.3359044 42.9085314,35.3359044 C42.9085314,35.3359044 42.0597913,33.5831203 41.775952,30.3135247 C41.4921127,27.0439291 42.6668519,20.9055338 43.465297,20.0030969 C44.2637421,19.10066 50.1762785,18.5801342 54.8084638,15.6765362 C59.4406492,12.7729382 63.2702397,9.17358961 63.2702397,8.61949378 C63.2702397,8.5350729 62.8191467,8.36731099 62.4186811,8.12766518 C62.0012597,7.87787266 61.6337623,7.55763823 61.6337623,7.55763823 C61.6337623,7.55763823 63.3305785,6.36342897 64.1723992,4.42842023 C65.0142199,2.49341149 65.2321115,-1.17731251e-16 64.7417922,0 C64.2514728,1.17731251e-16 64.0685504,1.68752656 63.0761554,2.92533565 C62.0837604,4.16314474 61.484191,4.18983941 61.3686159,4.04764794 C61.1431584,3.77026895 61.1970654,2.82921646 61.0961147,2.22107221 C61.036317,1.86083993 60.8068084,1.82382476 60.7005784,1.87291861 C60.3230777,2.04737924 60.2159479,5.07072123 59.5975544,5.70489413 C59.5975544,5.70489413 59.4600765,5.56501624 59.3525189,5.42366144 C59.2567444,5.29779221 59.1965417,5.16467831 59.0948963,5.22210177 C57.7653735,5.97320111 55.2241034,9.51672955 50.6025873,11.1589361 C45.9810711,12.8011428 41.4909222,11.7427039 40.2026886,12.0575594 C39.3314119,12.270507 37.5950386,13.4309036 37.031477,13.4309036 C36.4679154,13.4309036 36.0347853,13.1528754 35.5884662,12.6052173 C35.3049773,12.2573608 35.1094254,11.3585597 35.1773595,10.2995081 L35.3829434,10.5195411 C35.4107459,10.172393 35.8220909,7.60077628 35.8461099,7.2319869 C35.9269119,5.99134371 35.3851588,4.96015158 35.0035012,4.28430053 C34.8214874,3.96198487 34.4432216,3.70300998 34.0051719,3.48476476 C33.8659393,3.41539626 33.655497,3.59962066 33.655497,3.59962066 C33.655497,3.59962066 33.655497,3.34431475 33.4782732,3.27520597 C33.3010493,3.20609719 32.1413798,2.9568546 31.6913693,2.98756496 C30.7794996,3.04979428 29.2410217,3.48320162 28.2455803,4.59404776 C27.5605466,5.35849963 27.2562399,6.54968203 27.2872853,7.28850302 L27.4293021,7.10468076 C27.4525918,7.37264563 27.5005488,7.6269724 27.5576232,7.86010916 C27.781518,8.77467203 27.7504722,9.39268318 27.5504585,9.75032348 C27.3504449,10.1079638 27.6330006,10.4398039 28.0169081,10.4398039 C28.4008155,10.4398039 28.1475762,11.1720266 28.1790086,11.3030631 C28.210441,11.4340995 28.5318684,11.4187179 28.5318684,11.4187179 C28.5318684,11.4187179 28.3527518,11.6799487 28.3993984,11.8044855 C28.446045,11.9290222 28.7103258,11.9127991 28.7397168,11.9736301 C28.7691078,12.034461 28.608067,12.7737335 28.7957669,13.0203883 C28.9981345,13.2863179 29.8102631,12.9455183 29.8102631,12.9455183 C29.8102631,12.9455183 30.4024847,12.7840687 31.0517413,13.0601263 Z"></path>
                    </g>
                </g>
            </g>
        </g>
    </g>
</svg>

<svg width="65" height="60" viewBox="0 0 65 60" xmlns="http://www.w3.org/2000/svg"><path d="M31.052 13.06c.65.276.46 1.515.46 1.515s-1.644.21-2.17.118c-1.334-.232-1.99-.727-3.5-.5-1.513.228-5.374 3.12-8.697 3.12-3.323 0-9.408-1.834-9.408-1.834l-.085.195c-.183-.005-.748-.192-1.38-.4-.502-.164-1.046-.34-1.473-.45-.855-.214-1.13-.493-1.21-.252-.09.284.304.583.355.68.052.1-.103.284-.81.134C1.55 15.047.142 13.22.01 13.427c-.152.245 1.025 2.097 2.41 3.1.927.672 2.58.846 3.538 1.06.473.105.79.157.79.157l-1.165 4.16s6.398 1.7 10.528 1.86c4.13.16 7.534-1.088 8.294-1.135.76-.048 1.558.37 2.49 1.49.904 1.086 1.182 2.9 1.182 4.196 0 2.633-1.44 5.33-2.24 5.944-.797.615-11.04 4.19-12.318 5.474-1.277 1.284-6.34 12.944-6.343 15.73-.002.265 2.216.398 2.216.398s-.144.928-.48 1.228c-.333.3-3.227.544-4.25 1.128-.59.337-.81 1.314-.72 1.5.094.187 8.52.182 8.696 0 .176-.18 0-3.723 0-3.723s1.79-.158 1.79-.53c0-3.943 2.715-9.08 6.576-11.254 3.86-2.172 9.468-3.612 14.136-3.104 4.67.508 9.966 3.21 11.854 5.72 1.624 2.16.71 8.365.71 9.735 0 .265 1.288.267 1.288.267s-.49 2.67-.387 2.86c.102.188 8.683.364 9.293.298.61-.067-.01-1.235-.747-1.632-.76-.41-3.214-.804-4.158-1.06-.26-.073-.223-.424-.223-.466 0 0 2.41.024 2.45-.266.3-2.17-.88-11.565-1.85-13.86-.807-1.906-10.464-7.365-10.464-7.365s-.85-1.753-1.134-5.022c-.284-3.27.89-9.408 1.69-10.31.798-.903 6.71-1.424 11.342-4.327 4.633-2.904 8.462-6.503 8.462-7.058 0-.085-.45-.253-.85-.492-.42-.25-.786-.57-.786-.57s1.698-1.195 2.54-3.13c.84-1.935 1.06-4.428.57-4.428-.49 0-.674 1.688-1.667 2.925-.992 1.238-1.592 1.265-1.707 1.123-.227-.278-.173-1.22-.274-1.827-.06-.36-.29-.397-.395-.348-.377.175-.484 3.2-1.102 3.833 0 0-.138-.14-.245-.28-.096-.127-.156-.26-.258-.203-1.33.75-3.87 4.295-8.492 5.937-4.622 1.64-9.112.582-10.4.897-.872.213-2.608 1.373-3.172 1.373-.562 0-.995-.277-1.442-.825-.283-.348-.48-1.246-.41-2.305l.205.22c.03-.348.44-2.92.465-3.288.08-1.24-.46-2.272-.842-2.948-.183-.322-.56-.58-1-.8-.138-.07-.35.116-.35.116s0-.256-.176-.325c-.177-.07-1.337-.318-1.787-.287-.91.062-2.45.495-3.445 1.606-.685.764-.99 1.956-.96 2.695l.143-.186c.023.268.07.522.128.755.224.914.192 1.532-.008 1.89-.2.357.083.69.467.69s.13.73.162.862c.03.13.352.116.352.116s-.18.26-.135.384c.046.125.31.11.34.17.03.06-.132.8.056 1.046.203.266 1.015-.074 1.015-.074s.592-.162 1.242.114z" fill="#64728A" fill-rule="evenodd"/></svg>
